X:31
T:3. THE BRIDGE OF ATHLONE (48 bar jigs)
T:Dingle Regatta
R:Jig
O:Ireland
M:6/8
K:G
P:A
d^cd e2d|B^AB d2B|A2A AGA|B2A G2^c|\
d^cd e2d|B^AB d2B|A2A DEF|G3 G3::
P:B
d2d def|g2g g2g|a2a aga|b2a gfe|\
d2d def|g2g gfg|a2g f2e|def g3::
P:C
g3 d3|BdB G3|A2A DEF|G2B d3|\
g3 d3|BdB G2d|A2A DEF|G3 G3:|
